X: 80
T:Missa Allez regretz I / Agnus Dei
N: Derived from Jos0701e-Missa_Allez_regretz_I-Agnus.krn
C: Josquin des Prez
%%abc-version 2.0
%%abcx-abcm2ps-target-version 5.9.1 (29 Sep 2008)
%%abc-creator hum2abc beta
%%abcx-conversion-date 2019/02/12 16:15:42
%%abc-edited-by Jesse Rodin
%%abc-edited-by Jesse Rodin; Victoria Chang 2012/02/27
%%abcx-initial-encoding-date 2012/02/27/
%%humdrum-veritas 1115044194
%%humdrum-veritas-data 3046306505
%%linebreak <none>
%%barnumbers 0
L: 1/4
M: 4/2
Q: 1/2=120
%%staves [1 2 3 4]
V: 1 clef=treble
V: 2 clef=treble-8
V: 3 clef=treble-8
V: 4 clef=bass
K: F
[V:1] F6ED | 
[V:2] F6G2 | 
[V:3] C6D2 | 
[V:4] F,,3G,,A,,2B,,2 | 
[V:1] C2E2D2F2- | 
[V:2] A2c4B2 | 
[V:3] E2G4F2 | 
[V:4] C,4D,4 | 
[V:1] FEE2F4 | 
[V:2] c4B4- | 
[V:3] G4F4- | 
[V:4] C,4D,2B,,2 | 
[V:1] z4F4 | 
[V:2] B2c2d2f2- | 
[V:3] F2G2A2c2- | 
[V:4] D,2E,2F,2A,2 | 
[V:1] G4A2c2- | 
[V:2] f2e2f4 | 
[V:3] c2B2c4 | 
[V:4] G,4F,4 | 
[V:1] cBA4G2 | 
[V:2] z8 | 
[V:3] z8 | 
[V:4] A,4B,4 | 
[V:1] A6c2- | 
[V:2] z4F4- | 
[V:3] z4C4- | 
[V:4] A,4A,,4- | 
[V:1] c2B2A2G2 | 
[V:2] F2G2A2c2- | 
[V:3] C2D2E2G2- | 
[V:4] A,,2B,,2C,3B,, | 
[V:1] E2F4E2 | 
[V:2] c2B2c4 | 
[V:3] G2F2G4 | 
[V:4] C,2D,2C,4 | 
[V:1] F8 | 
[V:2] B8- | 
[V:3] F8- | 
[V:4] D,4B,,4- | 
[V:1] z2F4ED | 
[V:2] B8 | 
[V:3] F8 | 
[V:4] B,,4D,4 | 
[V:1] E4F2E2- | 
[V:2] c4B2c2- | 
[V:3] G4F2G2- | 
[V:4] C,4D,2C,2- | 
[V:1] E2C2G2A2- | 
[V:2] c2A2G2F2- | 
[V:3] G2E2D2C2- | 
[V:4] C,4B,,2A,,2- | 
[V:1] A6B2 | 
[V:2] F4z4 | 
[V:3] C4z4 | 
[V:4] A,,2F,,2F,2G,2 | 
[V:1] A2D2F2G2 | 
[V:2] z8 | 
[V:3] z8 | 
[V:4] A,2F,4E,2 | 
[V:1] A4G2A2 | 
[V:2] f4e2f2- | 
[V:3] c4B2c2- | 
[V:4] F,4G,2F,2- | 
[V:1] F4z2F2- | 
[V:2] f2d2c2B2- | 
[V:3] c2A2G2F2- | 
[V:4] F,4E,2D,2 | 
[V:1] F2D2E2E2 | 
[V:2] B4c4 | 
[V:3] F4G4 | 
[V:4] B,,2D,2C,4 | 
[V:1] F2E3DC2 | 
[V:2] B2c4A2 | 
[V:3] F2G4E2 | 
[V:4] D,2C,3B,,C,2 | 
[V:1] B,2C4c2- | 
[V:2] G2F6 | 
[V:3] D2C6 | 
[V:4] G,,2A,,4F,,2 | 
[V:1] cBA4GF | 
[V:2] F6G2 | 
[V:3] C6D2 | 
[V:4] F,,4A,,2B,,2 | 
[V:1] E4z2F2- | 
[V:2] A2c4B2 | 
[V:3] E2G4F2 | 
[V:4] C,4D,4 | 
[V:1] FDE2F2B2- | 
[V:2] c4B4- | 
[V:3] G4F4- | 
[V:4] C,4D,2B,,2 | 
[V:1] BAG2F2A2- | 
[V:2] B2c2d2f2- | 
[V:3] F2G2A2c2- | 
[V:4] D,2E,2F,3E, | 
[V:1] A2G2A4 | 
[V:2] f2e2f4 | 
[V:3] c2B2c4 | 
[V:4] F,2G,2F,4 | 
[V:1] G2A3FG2 | 
[V:2] z8 | 
[V:3] z8 | 
[V:4] C,2F,4E,2 | 
[V:1] C2FGABc2- | 
[V:2] z4F4- | 
[V:3] z4C4- | 
[V:4] F,4F,,4 | 
[V:1] c2B2A2G2 | 
[V:2] F2G2A2c2- | 
[V:3] C2D2E2G2- | 
[V:4] A,,2B,,2C,4 | 
[V:1] E2F4E2 | 
[V:2] c2B2c4- | 
[V:3] G2F2G4 | 
[V:4] C,2D,2C,4 | 
[V:1] F8 ||  
[V:2] c8 ||  
[V:3] F8 ||  
[V:4] F,,8 ||  
[V:1]  [K:F] [K:clef=treble][M:2/1]F8- | 
[V:2]  [K:F] [K:clef=treble-8][M:2/1]F8 | 
[V:3]  [K:F] [K:clef=treble-8][M:2/1]c8 | 
[V:4]  [K:F] [K:clef=bass][M:2/1]F,8 | 
[V:1] F8 | 
[V:2] F4A4 | 
[V:3] A4F4 | 
[V:4] F,4D,4 | 
[V:1] _E4C4 | 
[V:2] c8 | 
[V:3] G6A2 | 
[V:4] C,2_E,2E,2D,C, | 
[V:1] D8 | 
[V:2] f8 | 
[V:3] B8 | 
[V:4] B,,8 | 
[V:1] C2c3BA2- | 
[V:2] z8 | 
[V:3] A8- | 
[V:4] F,,8 | 
[V:1] AGF3ED2 | 
[V:2] F8- | 
[V:3] A8- | 
[V:4] z8 | 
[V:1] C2D3EF2 | 
[V:2] F4A4 | 
[V:3] A8 | 
[V:4] F,8- | 
[V:1] D2F4ED | 
[V:2] B8 | 
[V:3] D4F4 | 
[V:4] F,4D,4 | 
[V:1] E8 | 
[V:2] c8 | 
[V:3] G6FE | 
[V:4] C,8 | 
[V:1] F4D2F2- | 
[V:2] F8 | 
[V:3] D4d4- | 
[V:4] B,,8 | 
[V:1] FEFGA4- | 
[V:2] A4B4 | 
[V:3] d8 | 
[V:4] F,2D,3C,D,E, | 
[V:1] A4F4- | 
[V:2] A8 | 
[V:3] c4d2c2- | 
[V:4] F,8 | 
[V:1] F4E4 | 
[V:2] z8 | 
[V:3] c2B2c4 | 
[V:4] D,4C,4 | 
[V:1] F2A2B2A2 | 
[V:2] z8 | 
[V:3] A4F4 | 
[V:4] D,8 | 
[V:1] GFEDE4 | 
[V:2] z8 | 
[V:3] G8 | 
[V:4] z8 | 
[V:1] F4z2A2- | 
[V:2] c8 | 
[V:3] F8 | 
[V:4] z8 | 
[V:1] AGE4F2- | 
[V:2] A8 | 
[V:3] c8 | 
[V:4] z8 | 
[V:1] F2D2F2D2 | 
[V:2] B8 | 
[V:3] F8- | 
[V:4] B,,8 | 
[V:1] F6G2 | 
[V:2] A8 | 
[V:3] F8 | 
[V:4] D,8 | 
[V:1] E8 | 
[V:2] c8 | 
[V:3] G8 | 
[V:4] C,8 | 
[V:1] F4D4- | 
[V:2] F8 | 
[V:3] F4f4- | 
[V:4] D,8 | 
[V:1] D2C2B,4 | 
[V:2] z8 | 
[V:3] f2e2d4 | 
[V:4] B,,8 | 
[V:1] A,4z2A,2- | 
[V:2] z8 | 
[V:3] c4c2c2- | 
[V:4] F,8 | 
[V:1] A,B,C2D2C2- | 
[V:2] F8 | 
[V:3] cBAGF2f2- | 
[V:4] z8 | 
[V:1] C2F4E2 | 
[V:2] F4A4 | 
[V:3] fed4cB | 
[V:4] z8 | 
[V:1] F8- | 
[V:2] c8 | 
[V:3] A8- | 
[V:4] F,8 | 
[V:1] F8 | 
[V:2] c4B4 | 
[V:3] A4F4 | 
[V:4] F,4D,4 | 
[V:1] z8 | 
[V:2] c8 | 
[V:3] G6A2 | 
[V:4] C,2_E,2E,2D,C, | 
[V:1] D8- | 
[V:2] z8 | 
[V:3] B3AF2G2 | 
[V:4] B,,8 | 
[V:1] D4E4 | 
[V:2] z8 | 
[V:3] F2G4FE | 
[V:4] B,,4C,4 | 
[V:1] F6ED | 
[V:2] F8 | 
[V:3] D4z2D2 | 
[V:4] B,,8 | 
[V:1] C4G4 | 
[V:2] F4E4 | 
[V:3] F2A2G4 | 
[V:4] z8 | 
[V:1] C2c3BA2- | 
[V:2] F8 | 
[V:3] A6F2- | 
[V:4] z8 | 
[V:1] AGF3GA2 | 
[V:2] A8 | 
[V:3] F2D2D4- | 
[V:4] F,8- | 
[V:1] D4z2D2- | 
[V:2] B8 | 
[V:3] D4z4 | 
[V:4] F,4G,4 | 
[V:1] D2C4D2- | 
[V:2] d8 | 
[V:3] A8 | 
[V:4] F,8 | 
[V:1] DEF2D2F2- | 
[V:2] B8 | 
[V:3] F8 | 
[V:4] D,8 | 
[V:1] F2EDE4 | 
[V:2] c8 | 
[V:3] G8 | 
[V:4] C,8 | 
[V:1] F6ED | 
[V:2] A8- | 
[V:3] F8 | 
[V:4] F,,8 | 
[V:1] C4z2C2 | 
[V:2] A8 | 
[V:3] E8 | 
[V:4] C,8 | 
[V:1] D3EF2D2 | 
[V:2] B8 | 
[V:3] F8 | 
[V:4] B,,8 | 
[V:1] E2F2D2E2 | 
[V:2] A8 | 
[V:3] z2F4E2 | 
[V:4] C,2D,3C,C,2 | 
[V:1] A,2A4F2 | 
[V:2] F8- | 
[V:3] F8 | 
[V:4] D,8- | 
[V:1] D2F3EFG | 
[V:2] F8 | 
[V:3] A4B4 | 
[V:4] D,8 | 
[V:1] E4z2A,2- | 
[V:2] z8 | 
[V:3] c8 | 
[V:4] C,8 | 
[V:1] A,2B,2A,2D2 | 
[V:2] z8 | 
[V:3] z2F2A2B2 | 
[V:4] D,8 | 
[V:1] C2F3GA2- | 
[V:2] F8 | 
[V:3] A2d2c2f2- | 
[V:4] F,8- | 
[V:1] ABc4F2- | 
[V:2] A8 | 
[V:3] f2F4c2- | 
[V:4] F,8 | 
[V:1] FGA4G2 | 
[V:2] A4B4 | 
[V:3] c2F2G4 | 
[V:4] z8 | 
[V:1] A8- | 
[V:2] A8- | 
[V:3] D8- | 
[V:4] z8 | 
[V:1] A8- | 
[V:2] A8- | 
[V:3] D8 | 
[V:4] F,8 | 
[V:1] A8 | 
[V:2] A8- | 
[V:3] F6G2 | 
[V:4] D,8 | 
[V:1] F4E4 | 
[V:2] A8- | 
[V:3] A2F2c4 | 
[V:4] D,4C,4 | 
[V:1] F8 | 
[V:2] A8- | 
[V:3] F6ED | 
[V:4] D,8 | 
[V:1] E4z2C2- | 
[V:2] A8- | 
[V:3] C3DE2F2 | 
[V:4] A,,8- | 
[V:1] CDE2F2E2 | 
[V:2] A8- | 
[V:3] E4z2C2 | 
[V:4] A,,8 | 
[V:1] F4C4- | 
[V:2] A8- | 
[V:3] D2F4E2 | 
[V:4] z2F,,3G,,A,,2 | 
[V:1] C8 | 
[V:2] A8- | 
[V:3] F2E2F2E2 | 
[V:4] F,,2A,,3B,,C,2 | 
[V:1] C8 |]  
[V:2] A8 |]  
[V:3] F8 |]  
[V:4] F,,8 |]  



